X:1
T:Tell It Over Again
T:Tell It Over Again
T:William James Kirkpatrick
T:Adelaide Rosalthe Carey, 1896
T:Public Domain Courtesy of the Cyber Hymnal™
T:Public Domain Courtesy of the Cyber Hymnal™
C:William James Kirkpatrick
Z:Public Domain
Z:Courtesy of the Cyber Hymnal™
%%score 1 ( 2 3 )
L:1/8
Q:1/4=105
M:4/4
K:D
V:1 treble 
V:2 bass 
V:3 bass 
V:1
 [DF]>[EG] | [FA]2 [FA]>[FA] [GA]2 [GB]>[Gc] | [Fd]4 [FA]2 [Ac]>[GB] | %3
w: 1.~It is|new, it is new ev- ery|mo- ment, Half its|
w: 2.~’Tis a|mes- sage of boun- ty and|mer- cy, Full of|
w: 3.~It has|balm for the wounds of life’s|bat- tle, For the|
w: 4.~Hap- py|souls, hap- py souls that re-|ceive it, They have|
 [FA]2 [GB]>[FA] [EG]2 [CA]>[CG] | [DF]6 [DF]>[EG] | [FA]2 [FA]>[FA] [GA]2 [GB]>[Gc] | %6
w: mar- vels have ne- ver been|told; This glad|mes- sage of hope and re-|
w: heart- throbs of love from the|throne; They who|quaff at its fount- ain of|
w: great Heal- er left it be-|low; And it|tells how the heart, sin makes|
w: on- ly to learn and be-|lieve; Just to|turn from earth- i- dols to|
 [Fd]4 [FA]2 [Ge]>[Fd] | [Ec]2 [DB]>[CA] [DE]2 [DF]>[D^G] | [CA]6 ||"^Refrain" [GA]>[GA] | %10
w: demp- tion, This sweet|Gos- pel that ne- ver grows|old.||
w: prom- ise Make the|glor- ies of Heav- en their|own.|Tell it|
w: crim- son, Grows, by|faith in His blood, white as|snow.||
w: Je- sus, Keep His|word, and sal- va- tion re-|ceive.||
 [Fd]6 [Ac]>[GB] | [FA]4 [DF]2 [FA]>[FA] | [EG]6 [CA]>[CG] | [DF]6 [FA]>[FA] | %14
w: ||||
w: o- ver and|o- ver, Tell it|o- ver a-|gain; Tell of|
w: ||||
w: ||||
 [Fd]2 [Fd]>[Fd] [Fd]2 [Ac]>[GB] | [FA]4 [DF]2 [FA]>[FA] | [GB]2 [GB]>[GB] [^GB]2 !fermata![=Gc]2 | %17
w: |||
w: mer- cy and love and sal-|va- tion, Till all|earth shall re- ply, A-|
w: |||
w: |||
 [Fd]6 |] %18
w: |
w: men!|
w: |
w: |
V:2
 [D,A,]>[D,A,] | [D,D]2 [D,D]>[D,D] [E,C]2 [A,,A,]>[A,,A,] | [D,A,]4 [D,D]2 [G,,G,D]>[G,,G,D] | %3
w: ~ ~|~ ~ ~ ~ ~ ~|~ ~ ~ ~|
 [A,,A,D]2 [A,,A,D]>[A,,A,D] [A,,C]2 [A,,A,]>[A,,A,] | [D,A,]6 [D,A,]>[D,A,] | %5
w: ~ ~ ~ ~ ~ ~|~ ~ ~|
 [D,D]2 [D,D]>[D,D] [E,C]2 [A,,A,]>[A,,A,] | [D,A,]4 [D,D]2 [C,A,]>[D,A,] | %7
w: ~ ~ ~ ~ ~ ~|~ ~ ~ ~|
 [E,A,]2 [E,A,]>[E,A,] [E,^G,]2 [E,A,]>[E,B,] | [A,,A,]6 || [A,C]>[A,C] | %10
w: ~ ~ ~ ~ ~ ~|~|~ ~|
 [D,A,]2 [D,A,]>[D,A,] [D,A,]2 [D,A,]2 | [D,D]2 [D,D]>[D,D] [D,A,]2 [D,A,]2 | %12
w: o- ver and o- ver,|o- ver and o- ver,|
 [A,,A,]2 [A,,A,]>[A,,A,] [A,,A,]2 [A,,A,]>[A,,A,] | [D,A,]2 [D,A,]>[D,A,] [D,A,]2 A,>A, | %14
w: O- ver and o- ver a-|gain, and a- gain! ~ ~|
 [D,A,]2 [D,A,]>[D,A,] [D,A,]2 z2 | [D,D]2 [D,D]>[D,D] [D,A,]2 [D,D]>[D,D] | %16
w: ~ ~ ~ ~|mer- cy and love. * *|
 [G,D]2 [G,D]>[G,D] [E,E]2 (!fermata!E!fermata!A,) | [D,A,]6 |] %18
w: ||
V:3
 x2 | x8 | x8 | x8 | x8 | x8 | x8 | x8 | x6 || x2 | x8 | x8 | x8 | x6 A,>A, | x8 | x8 | x6 A,2 | %17
 x6 |] %18

